shader_type canvas_item;

uniform float lod: hint_range(0.0, 5) = 0.0;

void fragment(){
	vec4 color = texture(SCREEN_TEXTURE, SCREEN_UV, lod);
	COLOR = color;
}
void fragment() {
	// Called for every pixel the material is visible on.
}

//void light() {
	// Called for every pixel for every light affecting the CanvasItem.
	// Uncomment to replace the default light processing function with this one.
//}
